X: 1
T: Beehive, The
M: 4/4
L: 1/8
R: reel
K: Dmin
|:DGGF G3A|B2dB cBAB|DGBd cBAB|G/F/GAG GFDC|
DGGF G3A|B2dB cBAB|G/F/GFG DEFD|1 G,A,CD A,G,G,D:|2 G,A,CD A,G,~G,2||
c2dc BGA/B/c|dggf d2ga|b/a/gaf gfdc|dggf d2ga|
b/a/gaf gfdc|d3e fefg|a3g fdcA|GAcd AGG/F/G:|
